dist/img/svg/discount-icon.svg

<svg width="156" height="156" viewBox="0 0 156 156" fill="none" xmlns="http://www.w3.org/2000/svg">
<g clip-path="url(#clip0)">
<path d="M145.627 80.0206C144.999 78.7364 144.999 77.2635 145.627 75.9796L151.445 64.077C154.685 57.4498 152.118 49.5508 145.602 46.0936L133.899 39.8841C132.636 39.2144 131.771 38.0224 131.524 36.6151L129.235 23.5657C127.96 16.3002 121.24 11.4179 113.937 12.4511L100.82 14.3066C99.4037 14.5065 98.0037 14.0513 96.9766 13.0577L87.4548 3.84644C82.153 -1.28264 73.8473 -1.28295 68.5458 3.84644L59.0237 13.0586C57.9963 14.0525 56.5963 14.5068 55.1807 14.3075L42.0631 12.452C34.7583 11.4182 28.0399 16.3011 26.7654 23.5666L24.4766 36.6154C24.2295 38.023 23.3639 39.2147 22.1016 39.8847L10.3986 46.0942C3.88262 49.5511 1.31595 57.4507 4.55537 64.0779L10.3733 75.9802C11.001 77.2644 11.001 78.7373 10.3733 80.0212L4.55506 91.9235C1.31565 98.5507 3.88232 106.45 10.3983 109.907L22.1013 116.116C23.3639 116.786 24.2295 117.978 24.4766 119.385L26.7654 132.435C27.9257 139.049 33.5971 143.687 40.1152 143.687C40.7572 143.687 41.4086 143.642 42.0634 143.549L55.181 141.694C56.5957 141.493 57.9966 141.949 59.024 142.942L68.5458 152.154C71.1971 154.719 74.598 156.001 78.0002 156C81.4014 156 84.8044 154.718 87.4546 152.154L96.9766 142.942C98.004 141.949 99.4043 141.495 100.82 141.694L113.937 143.549C121.243 144.583 127.96 139.7 129.235 132.434L131.524 119.386C131.771 117.978 132.637 116.786 133.899 116.116L145.602 109.907C152.118 106.45 154.685 98.5504 151.445 91.9232L145.627 80.0206ZM141.385 101.959L129.682 108.168C125.951 110.148 123.392 113.67 122.662 117.831L120.373 130.88C119.942 133.338 117.669 134.989 115.197 134.64L102.08 132.785C97.8964 132.192 93.757 133.538 90.7208 136.475L81.1987 145.686C79.4054 147.421 76.5953 147.421 74.8013 145.686L65.2795 136.475C62.7135 133.993 59.3589 132.647 55.8568 132.647C55.2152 132.647 54.5683 132.693 53.9205 132.784L40.8029 134.64C38.3331 134.989 36.0587 133.338 35.6272 130.879L33.3381 117.83C32.6081 113.669 30.0493 110.147 26.3178 108.168L14.6149 101.958C12.4102 100.789 11.5418 98.1162 12.6378 95.874L18.456 83.9715C20.311 80.1763 20.311 75.8236 18.456 72.0284L12.6378 60.1259C11.5418 57.8837 12.4102 55.2113 14.6149 54.0416L26.3178 47.8321C30.049 45.8519 32.6081 42.3304 33.3378 38.1696L35.6266 25.1205C36.058 22.6623 38.3304 21.0109 40.8023 21.3601L53.9199 23.2156C58.1017 23.8076 62.2427 22.4618 65.2789 19.525L74.801 10.3137C76.5943 8.57881 79.4044 8.57881 81.1984 10.3137L90.7202 19.525C93.7564 22.4621 97.8967 23.8076 102.079 23.2156L115.197 21.3601C117.667 21.0106 119.941 22.6623 120.372 25.1205L122.661 38.1699C123.391 42.3307 125.95 45.8525 129.682 47.8321L141.385 54.0416C143.589 55.2113 144.458 57.8837 143.362 60.1259L137.543 72.0281C135.688 75.823 135.688 80.1763 137.543 83.9712L143.362 95.8734C144.458 98.1162 143.59 100.789 141.385 101.959Z" fill="white"/>
<path d="M110.87 45.1286C109.114 43.3718 106.265 43.3718 104.508 45.1286L45.1282 104.509C43.3713 106.266 43.3713 109.114 45.1282 110.871C46.0066 111.749 47.158 112.189 48.3091 112.189C49.4602 112.189 50.6119 111.75 51.49 110.871L110.87 51.4911C112.627 49.734 112.627 46.8858 110.87 45.1286Z" fill="white"/>
<path d="M60.0051 37.5117C50.9097 37.5117 43.5098 44.9116 43.5098 54.0071C43.5098 63.1026 50.9097 70.5025 60.0051 70.5025C69.1006 70.5025 76.5005 63.1026 76.5005 54.0071C76.5005 44.9116 69.1006 37.5117 60.0051 37.5117ZM60.0051 61.5048C55.8709 61.5048 52.5074 58.1414 52.5074 54.0068C52.5074 49.8725 55.8709 46.5091 60.0051 46.5091C64.1394 46.5091 67.5032 49.8725 67.5032 54.0068C67.5029 58.1414 64.1394 61.5048 60.0051 61.5048Z" fill="white"/>
<path d="M95.9954 85.498C86.8999 85.498 79.5 92.898 79.5 101.993C79.5 111.089 86.8999 118.489 95.9954 118.489C105.091 118.489 112.491 111.089 112.491 101.993C112.491 92.898 105.091 85.498 95.9954 85.498ZM95.9954 109.491C91.8611 109.491 88.4974 106.128 88.4974 101.993C88.4974 97.8591 91.8608 94.4957 95.9954 94.4957C100.13 94.4957 103.493 97.8591 103.493 101.993C103.493 106.128 100.13 109.491 95.9954 109.491Z" fill="white"/>
</g>
<defs>
<clipPath id="clip0">
<rect width="156" height="156" fill="white"/>
</clipPath>
</defs>
</svg>

<svg width="156" height="156" viewBox="0 0 156 156" fill="none" xmlns="http://www.w3.org/2000/svg"><g clip-path="url(#clip0)" fill="#fff"><path d="M145.627 80.02a4.57 4.57 0 010-4.04l5.818-11.903a13.542 13.542 0 00-5.843-17.983l-11.703-6.21a4.57 4.57 0 01-2.375-3.269l-2.289-13.05a13.543 13.543 0 00-15.298-11.114l-13.117 1.856a4.572 4.572 0 01-3.843-1.25l-9.522-9.21a13.542 13.542 0 00-18.91 0l-9.521 9.212a4.573 4.573 0 01-3.843 1.248l-13.118-1.855a13.541 13.541 0 00-15.298 11.115l-2.288 13.048a4.573 4.573 0 01-2.375 3.27l-11.703 6.21a13.543 13.543 0 00-5.844 17.983l5.818 11.902a4.571 4.571 0 010 4.041L4.555 91.924a13.542 13.542 0 005.843 17.983l11.703 6.209a4.573 4.573 0 012.376 3.269l2.288 13.05a13.535 13.535 0 0013.35 11.252c.642 0 1.294-.045 1.948-.138l13.118-1.855a4.57 4.57 0 013.843 1.248l9.522 9.212A13.55 13.55 0 0078 156c3.401 0 6.804-1.282 9.455-3.846l9.522-9.212a4.577 4.577 0 013.843-1.248l13.117 1.855a13.541 13.541 0 0015.298-11.115l2.289-13.048a4.574 4.574 0 012.375-3.27l11.703-6.209a13.542 13.542 0 005.843-17.984l-5.818-11.902zm-4.242 21.939l-11.703 6.209a13.513 13.513 0 00-7.02 9.663l-2.289 13.049a4.582 4.582 0 01-5.176 3.76l-13.117-1.855a13.506 13.506 0 00-11.36 3.69l-9.521 9.211a4.582 4.582 0 01-6.398 0l-9.522-9.211a13.5 13.5 0 00-9.422-3.828c-.642 0-1.289.046-1.937.137l-13.117 1.856a4.583 4.583 0 01-5.176-3.761l-2.289-13.049a13.509 13.509 0 00-7.02-9.662l-11.703-6.21a4.581 4.581 0 01-1.977-6.084l5.818-11.902a13.511 13.511 0 000-11.944l-5.818-11.902a4.582 4.582 0 011.977-6.084l11.703-6.21a13.512 13.512 0 007.02-9.662l2.289-13.05a4.582 4.582 0 015.175-3.76l13.118 1.856a13.512 13.512 0 0011.359-3.691l9.522-9.211a4.582 4.582 0 016.397 0l9.522 9.211a13.51 13.51 0 0011.359 3.69l13.118-1.855a4.582 4.582 0 015.175 3.76l2.289 13.05a13.51 13.51 0 007.021 9.662l11.703 6.21a4.582 4.582 0 011.977 6.084l-5.819 11.902a13.511 13.511 0 000 11.943l5.819 11.902a4.583 4.583 0 01-1.977 6.086z"/><path d="M110.87 45.129a4.499 4.499 0 00-6.362 0l-59.38 59.38a4.498 4.498 0 106.362 6.362l59.38-59.38a4.499 4.499 0 000-6.362zm-50.865-7.617c-9.095 0-16.495 7.4-16.495 16.495 0 9.096 7.4 16.495 16.495 16.495 9.096 0 16.495-7.4 16.495-16.495s-7.4-16.495-16.495-16.495zm0 23.993c-4.134 0-7.498-3.364-7.498-7.498s3.364-7.498 7.498-7.498 7.498 3.364 7.498 7.498-3.364 7.498-7.498 7.498zm35.99 23.993c-9.095 0-16.495 7.4-16.495 16.495 0 9.096 7.4 16.496 16.495 16.496 9.096 0 16.496-7.4 16.496-16.496 0-9.095-7.4-16.495-16.496-16.495zm0 23.993c-4.134 0-7.498-3.363-7.498-7.498 0-4.134 3.364-7.497 7.498-7.497 4.135 0 7.498 3.363 7.498 7.497 0 4.135-3.363 7.498-7.498 7.498z"/></g><defs><clipPath id="clip0"><path fill="#fff" d="M0 0h156v156H0z"/></clipPath></defs></svg>
